X:1
T:Title
%%score 1 2
L:1/8
Q:1/4=90
M:3/4
K:Ab
V:1 treble nm="Strings 1, Treble"
V:2 bass nm="Strings 1, Bass"
V:1
 z2 z2 [Ec]>[Ec] | [Ec]3 [=EB] [FA]>[DF] | [CE]4 [CE]>[CE] | %3
w: 1.~Je sus,~|Thou~ a~ foun tain~|art,~ Spring ing~|
 [DF]2 [EA]2 [=Dc]>[Q:1/4=90][DB][Q:1/4=12] | [EB]4 [Ed]>[Ed] | [Ec]3 [=EB] [FA]>[DF] | %6
w: up~ with in~ my~|heart;~ Fount~ of~|joy~ and~ hap pi|
 [CE]4 [CE]>[CE] | [DF]2 [FA]2 [Ec]>[Q:1/4=90][DB][Q:1/4=12] | [CA]4 [ce]>[Bd] | [Ac]4 [Ec]>[Ed] | %10
w: ness,~ Source~ of~|ev er last ing~|bliss.~ * *||
 [Ee]4 [FA]>[FA] | [FA]3 [FA] [EG]>[=DA] | [EB]4 [Ed]>[Ed] | [Ec]3 [=EB] [FA]>[DF] | %14
w: ||||
 [CE]4 [CE]>[CE] | [DF]2 [FA]2 [Ec]>[Q:1/4=90][DB][Q:1/4=12] | [CA]4 z2 |] %17
w: |||
V:2
 z2 z2 [A,,A,]>[A,,A,] | [A,,A,]3 [C,A,] [D,A,]>[D,A,] | [A,,A,]4 [A,,A,]>[A,,A,] | %3
 [D,A,]2 [C,A,]2 [B,,A,]>[B,,A,] | [E,G,]4 [G,B,]>[G,B,] | A,3 [C,A,] [D,A,]>[D,A,] | %6
 [A,,A,]4 [A,,A,]>[C,A,] | [D,A,]2 [D,A,]2 [E,A,]>[E,G,] | [A,,A,]4 z2 | [A,E]>[A,E] [A,E]2 z2 | %10
 [A,C]>[A,C] [A,C]2 [F,C]>[F,C] | [F,C]3 [F,C] [B,,B,]>[B,,A,] | [E,G,]4 [G,B,]>[G,B,] | %13
 A,3 [C,A,] [D,A,]>[D,A,] | [A,,A,]4 [A,,A,]>[C,A,] | [D,A,]2 [D,A,]2 [E,A,]>[E,G,] | %16
 [A,,A,]4 z2 |] %17

